ox-hugo/JuXxvo.svg

<?xml version="1.0" encoding="UTF-8" standalone="no"?>
<svg
   width="48.039062pt"
   height="48.039062pt"
   viewBox="0 0 48.039064 48.039064"
   version="1.1"
   id="svg37"
   xmlns:xlink="http://www.w3.org/1999/xlink"
   xmlns="http://www.w3.org/2000/svg"
   xmlns:svg="http://www.w3.org/2000/svg">
  <defs
     id="defs17">
    <g
       id="g9">
      <g
         id="glyph-0-0" />
      <g
         id="glyph-0-1">
        <path
           d="m 3.96875,-6.9375 c -0.046875,-0.125 -0.078125,-0.203125 -0.234375,-0.203125 -0.15625,0 -0.1875,0.0625 -0.234375,0.203125 L 1.4375,-0.984375 C 1.25,-0.46875 0.859375,-0.3125 0.3125,-0.3125 V 0 c 0.234375,-0.015625 0.671875,-0.03125 1.015625,-0.03125 0.3125,0 0.828125,0.015625 1.15625,0.03125 v -0.3125 c -0.5,0 -0.75,-0.25 -0.75,-0.5 0,-0.03125 0.015625,-0.140625 0.015625,-0.15625 L 2.21875,-2.265625 H 4.671875 L 5.203125,-0.75 c 0.015625,0.046875 0.03125,0.109375 0.03125,0.140625 0,0.296875 -0.5625,0.296875 -0.828125,0.296875 V 0 c 0.359375,-0.03125 1.0625,-0.03125 1.4375,-0.03125 0.421875,0 0.890625,0.015625 1.296875,0.03125 V -0.3125 H 6.96875 C 6.375,-0.3125 6.234375,-0.375 6.125,-0.703125 Z m -0.53125,1.109375 1.125,3.25 H 2.328125 Z m 0,0"
           id="path3" />
      </g>
      <g
         id="glyph-0-2">
        <path
           d="m 2.21875,-3.65625 v -2.4375 C 2.21875,-6.4375 2.234375,-6.5 2.703125,-6.5 H 3.9375 c 0.96875,0 1.3125,0.84375 1.3125,1.375 0,0.640625 -0.484375,1.46875 -1.59375,1.46875 z M 4.5625,-3.5625 C 5.53125,-3.75 6.21875,-4.390625 6.21875,-5.125 6.21875,-5.984375 5.296875,-6.8125 4,-6.8125 H 0.359375 V -6.5 H 0.59375 c 0.765625,0 0.796875,0.109375 0.796875,0.46875 v 5.25 c 0,0.359375 -0.03125,0.46875 -0.796875,0.46875 H 0.359375 V 0 h 3.90625 c 1.328125,0 2.21875,-0.890625 2.21875,-1.828125 0,-0.859375 -0.8125,-1.609375 -1.921875,-1.734375 z m -0.609375,3.25 h -1.25 c -0.46875,0 -0.484375,-0.0625 -0.484375,-0.390625 v -2.71875 h 1.875 C 5.078125,-3.421875 5.5,-2.5 5.5,-1.828125 5.5,-1.125 4.96875,-0.3125 3.953125,-0.3125 Z m 0,0"
           id="path6" />
      </g>
    </g>
    <clipPath
       id="clip-0">
      <path
         clip-rule="nonzero"
         d="M 0,22 H 26 V 48.039062 H 0 Z m 0,0"
         id="path11" />
    </clipPath>
    <clipPath
       id="clip-1">
      <path
         clip-rule="nonzero"
         d="M 23,0 H 48.039062 V 25 H 23 Z m 0,0"
         id="path14" />
    </clipPath>
  </defs>
  <path
     fill="none"
     stroke-width="0.3985"
     stroke-linecap="butt"
     stroke-linejoin="miter"
     stroke="#000000"
     stroke-opacity="1"
     stroke-miterlimit="10"
     d="M 9.910156,38.125 38.257813,9.78125"
     id="path19" />
  <g
     clip-path="url(#clip-0)"
     id="g23">
    <path
       fill="none"
       stroke-width="0.3985"
       stroke-linecap="butt"
       stroke-linejoin="miter"
       stroke="#000000"
       stroke-opacity="1"
       stroke-miterlimit="10"
       d="m 38.06,28.348 c 0,5.363281 -4.347656,9.710937 -9.714844,9.710937 -5.363281,0 -9.710937,-4.347656 -9.710937,-9.710937 0,-5.363281 4.347656,-9.714844 9.710937,-9.714844 5.367188,0 9.714844,4.351563 9.714844,9.714844 z m 0,0"
       transform="matrix(1,0,0,-1,-18.435,66.473)"
       id="path21" />
  </g>
  <g
     fill="#000000"
     fill-opacity="1"
     id="g27">
    <use
       xlink:href="#glyph-0-1"
       x="6.1750002"
       y="41.530998"
       id="use25" />
  </g>
  <g
     clip-path="url(#clip-1)"
     id="g31">
    <path
       fill="none"
       stroke-width="0.3985"
       stroke-linecap="butt"
       stroke-linejoin="miter"
       stroke="#000000"
       stroke-opacity="1"
       stroke-miterlimit="10"
       d="m 66.274844,56.69175 c 0,5.292969 -4.289063,9.582031 -9.582031,9.582031 -5.289063,0 -9.582032,-4.289062 -9.582032,-9.582031 0,-5.289063 4.292969,-9.578125 9.582032,-9.578125 5.292968,0 9.582031,4.289062 9.582031,9.578125 z m 0,0"
       transform="matrix(1,0,0,-1,-18.435,66.473)"
       id="path29" />
  </g>
  <g
     fill="#000000"
     fill-opacity="1"
     id="g35">
    <use
       xlink:href="#glyph-0-2"
       x="34.729"
       y="13.184"
       id="use33" />
  </g>
</svg>

<?xml version="1.0" encoding="UTF-8" standalone="no"?>
<svg
   width="48.038pt"
   height="48.038pt"
   viewBox="0 0 48.038 48.038"
   version="1.1"
   id="svg37"
   xmlns:xlink="http://www.w3.org/1999/xlink"
   xmlns="http://www.w3.org/2000/svg"
   xmlns:svg="http://www.w3.org/2000/svg">
  <defs
     id="defs17">
    <g
       id="g9">
      <g
         id="glyph-0-0" />
      <g
         id="glyph-0-1">
        <path
           d="M 3.96875 -6.9375 C 3.921875 -7.0625 3.890625 -7.140625 3.734375 -7.140625 C 3.578125 -7.140625 3.546875 -7.078125 3.5 -6.9375 L 1.4375 -0.984375 C 1.25 -0.46875 0.859375 -0.3125 0.3125 -0.3125 L 0.3125 0 C 0.546875 -0.015625 0.984375 -0.03125 1.328125 -0.03125 C 1.640625 -0.03125 2.15625 -0.015625 2.484375 0 L 2.484375 -0.3125 C 1.984375 -0.3125 1.734375 -0.5625 1.734375 -0.8125 C 1.734375 -0.84375 1.75 -0.953125 1.75 -0.96875 L 2.21875 -2.265625 L 4.671875 -2.265625 L 5.203125 -0.75 C 5.21875 -0.703125 5.234375 -0.640625 5.234375 -0.609375 C 5.234375 -0.3125 4.671875 -0.3125 4.40625 -0.3125 L 4.40625 0 C 4.765625 -0.03125 5.46875 -0.03125 5.84375 -0.03125 C 6.265625 -0.03125 6.734375 -0.015625 7.140625 0 L 7.140625 -0.3125 L 6.96875 -0.3125 C 6.375 -0.3125 6.234375 -0.375 6.125 -0.703125 Z M 3.4375 -5.828125 L 4.5625 -2.578125 L 2.328125 -2.578125 Z M 3.4375 -5.828125 "
           id="path3" />
      </g>
      <g
         id="glyph-0-2">
        <path
           d="M 2.21875 -3.65625 L 2.21875 -6.09375 C 2.21875 -6.4375 2.234375 -6.5 2.703125 -6.5 L 3.9375 -6.5 C 4.90625 -6.5 5.25 -5.65625 5.25 -5.125 C 5.25 -4.484375 4.765625 -3.65625 3.65625 -3.65625 Z M 4.5625 -3.5625 C 5.53125 -3.75 6.21875 -4.390625 6.21875 -5.125 C 6.21875 -5.984375 5.296875 -6.8125 4 -6.8125 L 0.359375 -6.8125 L 0.359375 -6.5 L 0.59375 -6.5 C 1.359375 -6.5 1.390625 -6.390625 1.390625 -6.03125 L 1.390625 -0.78125 C 1.390625 -0.421875 1.359375 -0.3125 0.59375 -0.3125 L 0.359375 -0.3125 L 0.359375 0 L 4.265625 0 C 5.59375 0 6.484375 -0.890625 6.484375 -1.828125 C 6.484375 -2.6875 5.671875 -3.4375 4.5625 -3.5625 Z M 3.953125 -0.3125 L 2.703125 -0.3125 C 2.234375 -0.3125 2.21875 -0.375 2.21875 -0.703125 L 2.21875 -3.421875 L 4.09375 -3.421875 C 5.078125 -3.421875 5.5 -2.5 5.5 -1.828125 C 5.5 -1.125 4.96875 -0.3125 3.953125 -0.3125 Z M 3.953125 -0.3125 "
           id="path6" />
      </g>
    </g>
    <clipPath
       id="clip-0">
      <path
         clip-rule="nonzero"
         d="M 0 22 L 26 22 L 26 48.039062 L 0 48.039062 Z M 0 22 "
         id="path11" />
    </clipPath>
    <clipPath
       id="clip-1">
      <path
         clip-rule="nonzero"
         d="M 23 0 L 48.039062 0 L 48.039062 25 L 23 25 Z M 23 0 "
         id="path14" />
    </clipPath>
  </defs>
  <path
     fill="none"
     stroke-width="0.3985"
     stroke-linecap="butt"
     stroke-linejoin="miter"
     stroke="rgb(0%, 0%, 0%)"
     stroke-opacity="1"
     stroke-miterlimit="10"
     d="M 28.345156 28.348 L 56.692813 56.69175 "
     transform="matrix(1, 0, 0, -1, -18.435, 66.473)"
     id="path19" />
  <g
     clip-path="url(#clip-0)"
     id="g23">
    <path
       fill="none"
       stroke-width="0.3985"
       stroke-linecap="butt"
       stroke-linejoin="miter"
       stroke="#000000"
       stroke-opacity="1"
       stroke-miterlimit="10"
       d="m 38.06,28.348 c 0,5.363281 -4.347656,9.710937 -9.714844,9.710937 -5.363281,0 -9.710937,-4.347656 -9.710937,-9.710937 0,-5.363281 4.347656,-9.714844 9.710937,-9.714844 5.367188,0 9.714844,4.351563 9.714844,9.714844 z m 0,0"
       transform="matrix(1,0,0,-1,-18.435,66.473)"
       id="path21" />
  </g>
  <g
     fill="#000000"
     fill-opacity="1"
     id="g27">
    <use
       xlink:href="#glyph-0-1"
       x="6.1750002"
       y="41.530998"
       id="use25" />
  </g>
  <g
     clip-path="url(#clip-1)"
     id="g31">
    <path
       fill="none"
       stroke-width="0.3985"
       stroke-linecap="butt"
       stroke-linejoin="miter"
       stroke="#000000"
       stroke-opacity="1"
       stroke-miterlimit="10"
       d="m 66.274844,56.69175 c 0,5.292969 -4.289063,9.582031 -9.582031,9.582031 -5.289063,0 -9.582032,-4.289062 -9.582032,-9.582031 0,-5.289063 4.292969,-9.578125 9.582032,-9.578125 5.292968,0 9.582031,4.289062 9.582031,9.578125 z m 0,0"
       transform="matrix(1,0,0,-1,-18.435,66.473)"
       id="path29" />
  </g>
  <g
     fill="#000000"
     fill-opacity="1"
     id="g35">
    <use
       xlink:href="#glyph-0-2"
       x="34.729"
       y="13.184"
       id="use33" />
  </g>
</svg>
